src/lib/packages/icons/src/assets/line/tag.svg

<svg width="24" height="24" viewBox="0 0 24 24" fill="none" xmlns="http://www.w3.org/2000/svg">
<path d="M20.489 10.536L18.9919 9.03699C18.9869 9.03199 18.986 9.02502 18.981 9.02002C18.976 9.01502 18.969 9.01397 18.964 9.00897L13.29 3.32898C12.606 2.64398 11.658 2.25098 10.689 2.25098H4.95203C3.46303 2.25098 2.25098 3.46398 2.25098 4.95398V10.697C2.25098 11.68 2.634 12.604 3.328 13.299L9.00403 18.981C9.00703 18.984 9.00799 18.988 9.01099 18.991C9.01399 18.994 9.018 18.995 9.021 18.998L10.5291 20.507C11.3531 21.332 12.228 21.751 13.13 21.751C14.031 21.751 14.906 21.332 15.73 20.507L20.4919 15.741C22.1659 14.062 22.166 12.214 20.489 10.536ZM3.75 10.696V4.953C3.75 4.289 4.28905 3.75 4.95105 3.75H10.688C11.261 3.75 11.823 3.983 12.228 4.388L17.387 9.552L9.54199 17.397L4.38794 12.237C3.98194 11.832 3.75 11.27 3.75 10.696ZM19.429 14.68L14.667 19.446C13.601 20.513 12.654 20.513 11.588 19.446L10.6021 18.459L18.447 10.614L19.428 11.596C20.522 12.691 20.522 13.584 19.429 14.68ZM8 7C8 7.552 7.55395 8 7.00195 8C6.45195 8 6 7.552 6 7C6 6.448 6.44204 6 6.99304 6H7.00305C7.55405 6 8 6.448 8 7Z" fill="currentColor"/>
</svg>

<svg xmlns="http://www.w3.org/2000/svg" width="24" height="24" fill="none"><path fill="currentColor" d="m20.489 10.536-1.497-1.499c-.005-.005-.006-.012-.011-.017-.005-.005-.012-.006-.017-.011l-5.674-5.68a3.7 3.7 0 0 0-2.601-1.078H4.952a2.706 2.706 0 0 0-2.701 2.703v5.743c0 .983.383 1.907 1.077 2.602l5.676 5.682.007.01.01.007 1.508 1.509c.824.825 1.699 1.244 2.601 1.244.901 0 1.776-.419 2.6-1.244l4.762-4.766c1.674-1.679 1.674-3.527-.003-5.205Zm-16.739.16V4.953c0-.664.539-1.203 1.201-1.203h5.737c.573 0 1.135.233 1.54.638l5.159 5.164-7.845 7.845-5.154-5.16a2.19 2.19 0 0 1-.638-1.541Zm15.679 3.984-4.762 4.766c-1.066 1.067-2.013 1.067-3.079 0l-.986-.987 7.845-7.845.981.982c1.094 1.095 1.094 1.988.001 3.084ZM8 7c0 .552-.446 1-.998 1C6.452 8 6 7.552 6 7s.442-1 .993-1h.01C7.554 6 8 6.448 8 7Z"/></svg>
